assets/icons/action/new_custom100.svg

<?xml version="1.0"?><svg xmlns="http://www.w3.org/2000/svg" width="52" height="52" viewBox="0 0 52 52"><g fill="#fff"><path d="m35.5 41.5h-19c-0.6 0-0.9 0.5-0.8 1.1 0.8 3.1 5.1 5.5 10.2 5.5 5.2 0 9.5-2.4 10.2-5.5 0.3-0.6-0.1-1.1-0.6-1.1z m9.7-37.5h-38.4c-2.6 0-4.8 2.2-4.8 4.9v22.8c0 2.7 2.2 4.9 4.8 4.9h38.4c2.6 0 4.8-2.2 4.8-4.9v-22.8c0-2.7-2.2-4.9-4.8-4.9z m0 26.1c0 0.9-0.7 1.6-1.6 1.6h-35.2c-0.9 0-1.6-0.7-1.6-1.6v-19.6c0-0.9 0.7-1.6 1.6-1.6h35.2c0.9 0 1.6 0.7 1.6 1.6v19.6z"></path></g></svg>

<svg xmlns="http://www.w3.org/2000/svg" x="0px" y="0px"
	 width="52px" height="52px" viewBox="0 0 52 52" enable-background="new 0 0 52 52" xml:space="preserve">
<g>
	<path fill="#FFFFFF" d="M35.5,41.5h-19c-0.6,0-0.9,0.5-0.8,1.1c0.8,3.1,5.1,5.5,10.2,5.5c5.2,0,9.5-2.4,10.2-5.5
		C36.4,42,36,41.5,35.5,41.5z"/>
	<path fill="#FFFFFF" d="M45.2,4H6.8C4.2,4,2,6.2,2,8.9v22.8c0,2.7,2.2,4.9,4.8,4.9h38.4c2.6,0,4.8-2.2,4.8-4.9V8.9
		C50,6.2,47.8,4,45.2,4z M45.2,30.1c0,0.9-0.7,1.6-1.6,1.6H8.4c-0.9,0-1.6-0.7-1.6-1.6V10.5c0-0.9,0.7-1.6,1.6-1.6h35.2
		c0.9,0,1.6,0.7,1.6,1.6V30.1z"/>
</g>
</svg>
